X:5225
T:la Russe
M:4/4
O:England
R:Reel
Z:Richard Robinson 
%%TUNEURL: http://www.leeds.ac.uk/music/Info/RRTuneBk/gettune/0000089f.html
%%ID:0000089f
K:G
G2BB B2dd|d2g2 g2fg|a2g2 e2c2|e2d2 dcBA|\
G2BB B2dd|d2g2 g2fg|e2d2 c3F|A2G2 G4::
K:D
A2d2 d2cB|A2a2 a2f2|g3f g2e2|fgag f2d2|\
A2d2 d2cB|A2a2 a2f2|g3f g2e2\
|1 d4d4:|2 d2=c2B2A2 |]
